X:5857
T:Scottiche  Lea
O:england
C:Repertori 32
M:2/4
L:1/16
K:C
E2F2 G2AB|c2E2 G4|AGFE D3E|FGAB A2G2|\
E2F2 G2AB|c2E2 G4|AGFE DEFD|C2E2 C4:|
|:G2e2 e3d|c2a2 g4|G2fe d2cd|G2ed cBcA|\
G2e2 e3d|c2a2 g4|G2fe dcdB|c2GE C4:|
